web/packages/design/src/ResourceIcon/assets/valimail.svg

<svg width="72" height="72" viewBox="0 0 72 72" fill="none" xmlns="http://www.w3.org/2000/svg">
<g clip-path="url(#clip0_16975_12117)">
<path fill-rule="evenodd" clip-rule="evenodd" d="M2.53597 15.0024C5.05807 15.0266 13.0079 15.6503 19.7636 22.1852C24.2937 26.5525 27.3654 30.1979 29.6006 32.8618C32.8431 36.7199 34.2387 38.2976 35.9792 38.2976C37.7197 38.2976 39.0944 36.7199 42.3594 32.8618C44.593 30.1979 47.6647 26.5767 52.1964 22.1852C59.0907 15.5133 67.2098 15.0024 69.553 15.0024H72.001V19.6486H69.4176C67.3871 19.6695 61.0278 20.1772 55.6113 25.4663C51.2504 29.687 48.3947 33.0762 46.0966 35.8029C42.3368 40.2573 40.0823 42.9422 36.0002 42.9422C31.9197 42.9422 29.6651 40.2573 25.9053 35.8029C23.6072 33.0762 20.7499 29.687 16.3906 25.4663C12.2231 21.4374 7.47543 20.203 4.79056 19.8194V56.9016H0.000976562V15.0024H2.53597ZM72.001 40.9825V56.9032H55.5259V52.7453H67.2098V40.9809L72.001 40.9825Z" fill="#008FFB"/>
</g>
<defs>
<clipPath id="clip0_16975_12117">
<rect width="72" height="72" fill="white" transform="translate(0.000976562 0.00244141)"/>
</clipPath>
</defs>
</svg>

<svg xmlns="http://www.w3.org/2000/svg" width="72" height="72" fill="none" viewBox="0 0 72 72"><g clip-path="url(#a)"><path fill="#008ffb" fill-rule="evenodd" d="M2.536 15.002c2.522.025 10.472.648 17.228 7.183 4.53 4.368 7.601 8.013 9.837 10.677 3.242 3.858 4.638 5.436 6.378 5.436s3.115-1.578 6.38-5.436c2.234-2.664 5.306-6.285 9.837-10.677 6.895-6.672 15.014-7.183 17.357-7.183h2.448v4.647h-2.583c-2.03.02-8.39.528-13.807 5.817-4.36 4.221-7.216 7.61-9.514 10.337-3.76 4.454-6.015 7.14-10.097 7.14-4.08 0-6.335-2.686-10.095-7.14-2.298-2.727-5.155-6.116-9.514-10.337-4.168-4.029-8.916-5.263-11.6-5.647v37.083H0v-41.9zm69.465 25.98v15.921H55.526v-4.158H67.21V40.981z" clip-rule="evenodd"/></g><defs><clipPath id="a"><path fill="#fff" d="M.001.002h72v72h-72z"/></clipPath></defs></svg>
